X:47
T:Jigs simple chords 103
M:3/4
L:1/8
K:G
B/A/[G2G,2B,2D2]G GA | B[A2D,2F,2A,2C2]A AB | c[d2G,2B,2D2]B c2 | A[B2G2B,2D2]G AG | E[G2G,2B,2D2]G GA |
B[A2A,2C2E2]A AB | c[dG,B,D] cB cB | A2<[G2G,2B,2D2] G2 | B/A/[G2G,2B,2D2]G GA |
B[A2D,2F,2A,2C2]A AB | c[d2G,2B,2D2]B c2 | A[B2G2B,2D2]G AG | E[G2G,2B,2D2]G GA |
B[A2A,2C2E2]A AB | c[dG,B,D] cB cB | A2<[G2G,2B,2D2] G2 | B/A/[G2G,2B,2D2]G GA |
B[A2D,2F,2A,2C2]A AB | c[d2G,2B,2D2]B c2 | A[B2G2B,2D2]G AG | E[G2G,2B,2D2]G GA |
B[A2A,2C2E2]A AB | c[dG,B,D] cB cB | A2<[G2G,2B,2D2] G2 | B/A/[G2G,2B,2D2]G GA |
B[A2D,2F,2A,2C2]A AB | c[d2G,2B,2D2]B c2 | A[B2G2B,2D2]G AG | E[G2G,2B,2D2]G GA |
B[A2A,2C2E2]A AB | c[dG,B,D] cB cB | A2<[G2G,2B,2D2] G2 | d[g2G,2B,2D2]g ga |
g[f2D,2F,2A,2]f fg | f[e2C,2E,2G,2]d ef | g[a2D,2F,2A,2C2]g fe | d[g2G,2B,2D2]g ga |
g[f2D,2F,2A,2]f fg | f[eE,G,B,] fg fg | a2<[g2G,2B,2D2] g2 | d[g2G,2B,2D2]g ga |
g[f2D,2F,2A,2]f fg | f[e2C,2E,2G,2]d ef | g[a2D,2F,2A,2C2]g fe | d2<[g2G,2B,2D2] Bc |
d2<[e2C,2E,2G,2] AB | c[dD,F,A,C] cB AG | F2<[G2G,2B,2D2] G2 |


